icons/1_Primary/Hover.svg

<svg width="1024" height="1024" fill="none" xmlns="http://www.w3.org/2000/svg"><g clip-path="url(#a)"><path d="M512 1024c282.77 0 512-229.23 512-512S794.77 0 512 0 0 229.23 0 512s229.23 512 512 512Z" fill="#73ADA4"/><path d="M307.87 456.11c-14.54 0-26.48 4.15-32.71 13V412.5h-33.24v151.6h33.75v-56.59c0-13.5 7.79-20.77 21.29-20.77 11.94 0 17.65 6.75 17.65 18.7v58.66h33.23v-60.75c0-30.11-16.61-47.24-39.97-47.24Zm109 0c-32.71 0-58.15 22.85-58.15 55.56 0 32.19 25.44 55 58.15 55 32.71 0 58.15-22.84 58.15-55s-25.41-55.56-58.12-55.56h-.03Zm0 82c-15.06 0-23.89-10.91-23.89-26.48 0-16.1 9.35-26.48 23.89-26.48 15.05 0 23.88 10.91 23.88 26.48s-8.75 26.51-23.85 26.51l-.03-.03Zm189.51-79.44h-28c-11.42 0-25.44 6.75-32.19 23.37l-4.19 7.82c-4.67 10.91-8.31 18.17-8.31 18.17l-1 4.67-1.57-4.7s-3.63-7.78-8.3-18.17l-3.64-8.31c-6.75-16.62-21.29-23.37-32.19-23.37H459s11.42 3.12 23.37 23.37c11.89 19.76 44.63 84.67 44.63 84.67h11.95s32.71-64.9 44.65-84.63c11.42-19.73 22.84-22.84 22.84-22.84l-.06-.05Zm43.62-2.55c-32.71 0-58.15 22.84-58.15 55 0 32.71 24.41 55.55 62.31 55.55 22.33 0 34.79-6.75 45.17-15.57l-19.21-20.77a46.865 46.865 0 0 1-26.48 8.31c-15.05 0-23.88-6.23-27.52-17.14h80.48c1.56-36.86-18.69-65.42-56.59-65.42l-.01.04Zm-23.88 45.17c2.59-12.46 11.42-18.69 24.92-18.69 13 0 20.77 6.75 22.33 18.69h-47.25Zm156.28-45.17c-10.91 0-23.37 3.63-29.6 15.05v-13h-33.72v105.4h33.75v-46.71c0-22.33 8.31-29.6 23.37-29.6a28.149 28.149 0 0 1 13 3.12l10.91-30.63a49.994 49.994 0 0 0-17.65-3.63h-.06Z" fill="#fff"/></g><defs><clipPath id="a"><path fill="#fff" d="M0 0h1024v1024H0z"/></clipPath></defs></svg>

<svg width="1024" height="1024" viewBox="0 0 1024 1024" fill="none" xmlns="http://www.w3.org/2000/svg">
<g clip-path="url(#clip0_2_2442)">
<path d="M512 1024C794.77 1024 1024 794.77 1024 512C1024 229.23 794.77 0 512 0C229.23 0 0 229.23 0 512C0 794.77 229.23 1024 512 1024Z" fill="#73ADA4"/>
<path d="M307.87 456.11C293.33 456.11 281.39 460.26 275.16 469.11V412.5H241.92V564.1H275.67V507.51C275.67 494.01 283.46 486.74 296.96 486.74C308.9 486.74 314.61 493.49 314.61 505.44V564.1H347.84V503.35C347.84 473.24 331.23 456.11 307.87 456.11ZM416.87 456.11C384.16 456.11 358.72 478.96 358.72 511.67C358.72 543.86 384.16 566.67 416.87 566.67C449.58 566.67 475.02 543.83 475.02 511.67C475.02 479.51 449.61 456.11 416.9 456.11H416.87ZM416.87 538.11C401.81 538.11 392.98 527.2 392.98 511.63C392.98 495.53 402.33 485.15 416.87 485.15C431.92 485.15 440.75 496.06 440.75 511.63C440.75 527.2 432 538.14 416.9 538.14L416.87 538.11ZM606.38 458.67H578.38C566.96 458.67 552.94 465.42 546.19 482.04L542 489.86C537.33 500.77 533.69 508.03 533.69 508.03L532.69 512.7L531.12 508C531.12 508 527.49 500.22 522.82 489.83L519.18 481.52C512.43 464.9 497.89 458.15 486.99 458.15H459C459 458.15 470.42 461.27 482.37 481.52C494.26 501.28 527 566.19 527 566.19H538.95C538.95 566.19 571.66 501.29 583.6 481.56C595.02 461.83 606.44 458.72 606.44 458.72L606.38 458.67ZM650 456.12C617.29 456.12 591.85 478.96 591.85 511.12C591.85 543.83 616.26 566.67 654.16 566.67C676.49 566.67 688.95 559.92 699.33 551.1L680.12 530.33C672.335 535.71 663.103 538.607 653.64 538.64C638.59 538.64 629.76 532.41 626.12 521.5H706.6C708.16 484.64 687.91 456.08 650.01 456.08L650 456.12ZM626.12 501.29C628.71 488.83 637.54 482.6 651.04 482.6C664.04 482.6 671.81 489.35 673.37 501.29H626.12ZM782.4 456.12C771.49 456.12 759.03 459.75 752.8 471.17V458.17H719.08V563.57H752.83V516.86C752.83 494.53 761.14 487.26 776.2 487.26C780.721 487.241 785.18 488.311 789.2 490.38L800.11 459.75C794.495 457.481 788.515 456.251 782.46 456.12H782.4Z" fill="white"/>
</g>
<defs>
<clipPath id="clip0_2_2442">
<rect width="1024" height="1024" fill="white"/>
</clipPath>
</defs>
</svg>
